X:1
T:Etienne Venier - Infected Mushroom - Wanted To
T:Etienne Venier - Infected Mushroom - Wanted To
%%score { 1 | 2 }
L:1/8
Q:1/4=158
M:4/4
K:Ab
V:1 treble nm="Piano"
V:2 bass 
V:1
 [CA]2 z2 [CAc]2 [CFcff']B | Cc E2 [CAc]2 [Ee]2 | [FAfe'f']2 [Dd]2 [FAf]2 D2 | %3
 [G=e]2 c2 [=EGe]2 [Cc]2 | [CFBf]2 [Cc]/ z z/ [FAf]2 [Ccc']B | [Ff]c [Cc]2 [FAf]2 [Cc]2 | %6
 [FB]2 C2 [FAf]2 [Cc]2 | [G=e]2 z/ [Cc]3/2 [=EGe]2 C2 | [DBd]2 [Fc'f']2 [DBd]2 [Fdf]c | %9
 [Dd]A D2 [FA]2 [Dd]2 | [CAc]2 E2 [CA]2 E2 | [EG]/ z z/ C2 [EGBe]2 z2 | %12
 [DBd]2 [Ff']2 [DBd]2 [Fdff'][cc'] | dA [Dd]2 [FAf]2 [Dd]2 | [CAc]2 e2 [CA]2 [Ee]2 | %15
 [EGBe]/ z4 z2 z C/ | [Ff]CeC C3 z | [Cf]/[Ff']/C z C z4 | GG G/ z/ G3 [Dc]2 | %19
 [Dcd]3/2[cd]3/2[Dcd] [EGe][Eeg] [EGe][Ee]/ z/ | [CFff']C z2 C3/2 z2 C/ | [Fff']CAC C z C2 | %22
 [Dd] [Dd]3 [DFAdff']4 | [Dcd]3/2[Dd][Dd]/c [=EG=e]2 [CGBc]G/_e/ | [Fcf][Cc]e z C3 z | %25
 [CFff']CeC [Cc]2 z2 | G z GG z2 [Dc]2 | [Dd]3/2D3/2[Dd] [Ee][EGe][EGe]E | %28
 C/[Fff']/C e z [Cc]2- [Cc]/ z C/ | [Fff']C z C z4 | [Dcd]c c2 [DFAdfaf']4 | C3 C G2 GA | %32
 z G [Ff]/ z/ e [Cc] z2 z | z4 B z/ B/ z [Bb] | [DABb][Aa][DA] z [Ee][Dd] z2 | %35
 z G[CG][=E=e] [CG]G z A | z G[Ff]e [Cc]ec z | z4 B z BB | B z [DA][Ae] [Ee][DGd] e2 | %39
 z2 [EG]C [Geg]g[cc']d | dcB[Aa] D z c z | z2 [Dd] z [Ee][Dd]AA | c[cc'][Acc']c c z AB | %43
 z [Ee][EG][Cc] [Ge][cc'] z d | z [cc']B[Aa] D z2 z | z2 [Dd] z [Ee][Dd][Fff']A | %46
 [cc'] z [Ace] z c z AB | z4 [EG]/ z2 z z/ | %48
 [EGe]4- [EGe]/[c''=d''f'']/[g'=a'=b']/[=bc'=d'f']/ [=efg=a]/[FG=A=Bc=df']/[C=DE=Ece]/ z/ | %49
 =e'[Fff'][Aca][Bcbb'] [Ccc']2 [Fff']2 | [Bb] z [Aa]2 [Bcb]c [Aa]2 | [GBeg] z4 z [FAdff']2- | %52
 [FAdff']3/2 z2 z/ [EGe]>E z [Ef] | z [Fff'][Aca][CBc] [Ccc']2 [Fff']2 | %54
 [Bbb']C [Aa]2 [CBcb]c [Aa]2 | [GBeg] z4 z [Adfa]2 | z4 [EGe]/ z E/ G/EE/ | %57
 z [Ff][CAca][CB] [Ccc']2 [Fff']2 | [Bb] z [Aa]2 [Bcab]c [Aa]2 | [GBeg] z4 z [DFAdff']2 | %60
 z4 [Ee]3/2 z/ [Ee]/ z/ [Ee] | z [Ff][A_g]B [cc']2 [Fff']2 | [Bbb'] z [Aa]2 [Bcbb'][cc'] [Aa]2 | %63
 [dfad']3 z4 z | [Cc=eg]4 [ceg]3 z/ C/ | f'C z2 C z2 z/ C/ | [Fff']CA z4 z | G z G G3 [Dcd]2 | %68
 [Dd]3/2[Dcd]3/2[Dd] [EGe][EGe][EGe][Eg] | [Cc']/[Fff']/C e z4 z/ C/ | [Ff]C z4 z2 | %71
 [Dd] [Dcd]3 [DFAda]4 | [Dcd]3/2[Dcd]3/2[Dcd] [G=e]2 [CBc] z | [Fcff']C z2 c3/2 z2 C/ | %74
 [Fff']C z4 z2 | GGG G3 [Dcd]2 | [Dcd]3/2[Dc]3/2D [Ee]E[Ee]E | fCeC C3/2 z/ C/ z C/ | %78
 [Fff']C z C z4 | [Dd] [Dc]3 [DFAdf]4 | [CB]3- [CB]/cg3/2ga | z g[cf] z [Cc]e z2 | %82
 z4 [cebc'] z/ [bb']/ z b | [dfb]a[Da] z E[Dd] z2 | z G[Cg][=E=e] [Cg][Gg] z [Gca] | %85
 z g f/ z z/ [Cc] z2 z | z4 [cebc'] z [bb']b | [dfb] z [Ddc']d' E[Ddc'] z2 | %88
 z2 [Ge][Ce] [Gge'] z c'd' | [c'f']c'[Bbb']a [Ddd'] z2 z | z2 [Dd]e [Ee][Dd]aa | %91
 c'c'[ec']c' c' z ab | z e[Ge][Cc] [Gge']c' z [egd'] | c'c'[bb'][fa] D z2 z | z2 D z E[Dd]fa | %95
 c' z c' z c' z a[Bbc'b'] | z4 [Beg]4 | %97
 [Beg]4- [Beg][c'g'=a'=b'c'']/[=b=d'=e'f']/ [fg=ac']/[G=A=Bc=d]/[=D=E=e] | %98
 z [Fff'][Aca][Bb] [cc']2 [Fff']2 | [Bb] z [Aa]2 [Bb] z [Aa]2 | [GBeg] z4 z [FAdff'] z | %101
 z4 [EGe]E/e/ E/eE/ | =e'[Fff'][Aa][Bbb'] [cc']2 [Fff']2 | [Bbb'] z [Aa]2 [Bcb]c [Aa]2 | %104
 [GBeg] z4 z [Adfa]2- | [Adfa]4 [EGe][Ee]/g/ E/eE/ | z [Fff'][Aca][Bcb] [cc']2 [Fff']2 | %107
 [Bbb'] z [Aa]2 [Bcbb']c [Aa]2 | [GBeg] z4 z [FAdf] z | z4 [EGe]3/2[Ee] z/ [Ee] | %110
 z [Fff'][Aca][CBbb'] [cc']2 [Fff']2 | [Bab] z [Aa]2 [Bb]c A2 | [Ddfa]6 z2 | %113
 [Cc=egc']4 [Ceg=e']3 [Fff']/[Ac]/ | [Fff']2 z C2 z f/c/A/F/ | [Acf]2 z4 f/c/A/F/ | %116
 [Acfc'f']F A[FAcf]<a=e' [FAcfaf']2 | z [FAcff']2 z [ff']/[Fae'][Af]/ F[Aff']/[CFAfaf']/- | %118
 [CFAfaf']8 | %119
V:2
 F,,2 F,2 z2 F, z | A,, z E,2 z2 E,2 | D,,2 D,2 z4 | [=E,,=E,]2 C,2 z2 C,2 | %4
 [F,,F,]2 z/ C,3/2 z2 C, z | A,, z C,2 z2 C,2 | D,,2 z4 z2 | [=E,,=E,]2 C,/ z2 z z/ C,2 | %8
 B,,,2 B,,2 z2 B,, z | [D,,D,] z4 z2 z | A,,2 E,2 z2 E,2 | z/ C,,3/2 C,2 z2 C,2 | %12
 B,,,2 B,,2 z2 B,, z | [D,,D,] z4 z2 z | A,,2 E,2 z2 E,2 | B,/ B,,,6- B,,,/F,/A,/ | %16
 F,C,[A,,A,][F,,,F,,F,] [F,,F,]3 F,/A,/ | F,/ z/ C, [A,,A,][F,,,F,,F,] [F,,,F,,F,]F, [F,,,F,,F,]2 | %18
 [G,,,G,,G,][G,,G,] [G,,G,]/G,,,/ [G,,G,]3 [D,,D,F,]2 | %19
 [D,F,]3/2D,3/2[D,,D,] [E,,B,,E,G,B,][B,,E,G,B,] [B,,G,][B,,E,G,B,]/[F,A,]/ | %20
 F,C,[A,,A,][F,,,F,,F,] [F,,F,]3/2F,F,/A,/ z/ | %21
 F,C,[A,,A,][F,,,F,,F,] [F,,,F,,C,F,]F, [F,,,F,,F,]2 | [D,,D,F,] [D,,D,F,]3 z4 | %23
 [D,,D,F,]3/2[D,F,][D,,D,]/ z [=E,,=E,G,]2 C,,F,/A,/ | F,C,[A,,A,][F,,,F,,F,] [F,,F,]3 F,/A,/ | %25
 F,C,[A,,A,][F,,,F,,F,] [F,,C,F,]2 [F,,,F,,F,]2 | %26
 [G,,,G,,G,][G,,G,][G,,,G,,G,][G,,,G,,G,] G,2 [D,,,D,,D,F,]2 | %27
 [D,F,]3/2F,3/2[D,,D,F,] [E,,B,,E,G,B,] z [B,,E,G,B,][E,G,] | %28
 A,/F,/C, [A,,A,][F,,,F,,F,] [F,,F,]2- [F,,F,]/F,/A,/ z/ | %29
 F,C,[A,,A,][F,,,F,,C,F,] [F,,C,F,]>F, [F,,,F,,]2 | [D,,,D,,D,F,] z4 z2 z | [C,,G,,=E,G,]3 z4 z | %32
 F,,C, z/ F,/A, z A,F,C, | A,,E,A,E, B,A,/ z/ E,A,, | D,A, z A, z2 A,D, | =E,G, z2 z G,E,G, | %36
 F,,C,F,A, z A,F,C, | A,,E,A,E, B,A,E,A,, | D,A, z A, z2 A,2 | C,E,G, z G,E,C,E, | %40
 B,,F,B,F, z [B,,B,]F,B,, | D,A, z A, z2 A,D, | A,,E, z E, B,A,E,A,, | [C,E,]E,G, z G,E,C,E, | %44
 B,,F,B,F, z B,F,B,, | D,A, z A, z2 A, z | A,,E,A,E, B,A,E,A,, | [B,,,B,,]4 B,/ B,,,3- B,,,/ | %48
 [B,,,B,,B,]4- [B,,,B,,B,]/ z2 z =B,/ | [F,,,F,,C,F,]F,F,F, F,2 z2 | [F,,F,][F,,C,] z2 F,F, z2 | %51
 [G,,,G,,]G,,G,,G,, G,,2 D,,2- | D,,3/2D,,3/2D,, [E,,E,G,B,]3/2 z/ [G,B,][G,B,] | %53
 [F,,,F,,C,]F,F,[F,,F,] [F,,F,]2 z2 | [F,,,F,,F,]F, z2 F,F, z2 | %55
 [G,,,G,,]G,,G,,G,, G,,2 [D,,,D,]2 | D,,,3/2 D,,2- D,,/ [E,G,]/B,G,/ z z/ G,/ | %57
 [F,,,F,,] z [F,,F,]F, [F,,F,]2 z2 | [F,,,F,,F,][F,,F,] z2 [F,,F,]F, z2 | %59
 [G,,,G,,]G,,G,,G,, G,,2 [D,,,D,,D,]2 | D,,4 [E,,B,,E,G,B,]>G, z/ G,/B, | %61
 [F,,,F,,F,]F,[F,,F,][F,,F,] F,,2 z2 | F,,[F,,C,] z2 F,,[F,,F,] F,,2 | [D,,,D,,D,]3 A,, D,,2 D,,2 | %64
 C,,4 [C,,C,]3 [F,A,]/ z/ | F,C,[A,,A,][F,,C,F,] [F,,C,F,] F,2 [F,A,]/ z/ | %66
 F,C,A,,[F,,F,] [F,,,F,,F,]2 [F,,,C,F,]2 | [G,,,G,,G,]G,/G,,/ [G,,G,] [G,,G,]3 [D,,,D,,D,F,]2 | %68
 [D,,D,F,]3/2[D,F,]3/2[D,F,] [E,,B,,E,G,B,][E,G,][B,,E,G,B,][B,,E,G,] | %69
 A,/F,/C, [A,,A,][F,,,F,,F,] [F,,F,]3/2F,>[F,A,] z/ | F,C,[A,,A,][F,,,F,,F,] [F,,F,]2 [F,,,F,,]2 | %71
 [D,,D,F,] F,3 z4 | [D,,,D,,D,F,]3/2[D,F,]3/2[D,,D,F,] [=E,,,=E,,=E,G,]2 C,,F,/[=B,,A,]/ | %73
 F,C,[A,,A,][F,,G,,F,] [F,,F,]3/2F,F,/A,/ z/ | F,C,[A,,A,][F,,,F,,F,] [F,,,F,,F,]2 F,,2 | %75
 [G,,,G,,G,][G,,G,][G,,G,] [G,,G,]3 [D,,D,F,]2 | %76
 [D,,D,F,]3/2F,3/2[D,F,] [E,,B,,E,G,B,]G,[E,G,][B,,G,] | %77
 [F,A,]C,[A,,A,][F,,,F,,F,] [F,,F,]>F, z/ F,A,/ | %78
 F,C,[A,,A,][F,,,F,,F,] [F,,,F,,C,F,]2 [F,,,F,,C,F,]2 | [D,,,D,,D,F,] F,3 z4 | %80
 [C,,C,]3- [C,,C,]/ z4 z/ | F,,C,F,A, z A,F,C, | A,,E,A,E, B,A,/ z/ E,A,, | D,A, z A, z2 A,D, | %84
 =E,G, z2 z G, E,/G,/ z | F,,C, F,<A, z A,F,C, | A,,E,A,E, B,A,E,A,, | D,A, z A, z2 A,2 | %88
 C,E,G, z G,E,C,E, | B,,F,B,F, z B,F,B,, | D,A, z A, z2 A, z | A,,E,A,E, B,A,E,A,, | %92
 C,E,G, z G,E,C,E, | B,,F,B,F, z B,F,B,, | D,A, z A, z2 A, z | A,,E, z E, B,A,E,A,, | %96
 [B,,,B,,]4 [B,,,B,,B,]4 | [B,,,B,,B,]4- [B,,,B,,B,] z2 z | F,, z [F,,F,][F,,F,] [F,,F,]2 z2 | %99
 [F,,F,][F,,F,] z2 [G,,F,]F, z2 | [G,,,G,,]G,,G,,[G,,,G,,] G,,2 [D,,,D,,D,]D,, | %101
 D,,3/2D,,3/2D,, [E,,G,B,] z/ [G,B,]/ z/ B,G,/ | [F,,,F,,B,,] z F,[B,,F,] [F,,F,]2 F,2 | %103
 [F,,,F,,C,F,][C,F,] z2 z [F,,F,] z2 | [G,,,G,,]G,,G,,G,, G,,2 [D,,,D,,]2- | %105
 [D,,,D,,]4 [E,,B,,E,G,B,]G,/ z [G,B,]A,,/ | [F,,C,]F,F,[F,,B,,F,] [F,,F,]2 z2 | %107
 [F,,,F,,F,][F,,,F,,] z2 [F,,F,] z2 z | [G,,,G,,]G,,G,,G,, G,,2 [D,,,D,,D,]D,, | %109
 D,,,4 [E,,B,,E,G,B,]3/2[G,B,]G,/B, | F,,F,[F,,F,][F,,F,] [F,,F,]2 F,2 | %111
 [F,,,F,,][F,,C,] z2 [F,,F,]F, z2 | [D,,,D,,D,]6 D,,2 | [C,,,C,,]4 [A,,C,]3 z | %114
 z2 [F,,,F,,C,F,] [F,,C,]2 [F,,C,] z2 | z2 [F,,,F,,C,] F,,2 F,, z2 | z2 [F,,,F,,C,] z2 [F,,C,] z2 | %117
 [F,,C,F,] F,2 [F,,C,F,] F,/ z F,/ z z/ [F,,,F,,C,F,]/- | [F,,,F,,C,F,]8 | %119

